; MD5:99b30f6f77a91af6a18eca16da49219e
; _IFS_COLORS START=1 TYPES=PLA,PLA,PLA,PLA E_FEEDRATES=0,0,675,675 COLORS=FFFF0A,808080,FFFFFF,FFFFFF TOOLS=0,1 VERSION=1.2.2 EXCLUDE="EXCLUDE_OBJECT_DEFINE NAME=First_Layer CENTER=122.4020,109.9175 POLYGON=[[100.210000,100.045000],[144.594000,100.045000],[144.594000,119.790000],[100.210000,119.790000]]"
; generated by PrusaSlicer 2.9.4 on 2025-12-11 at 10:17:01 UTC


;
;
; 

; external perimeters extrusion width = 0.42mm
; perimeters extrusion width = 0.42mm
; infill extrusion width = 0.42mm
; solid infill extrusion width = 0.42mm
; top infill extrusion width = 0.42mm
; first layer extrusion width = 0.42mm

; external perimeters extrusion width = 0.42mm
; perimeters extrusion width = 0.42mm
; infill extrusion width = 0.42mm
; solid infill extrusion width = 0.42mm
; top infill extrusion width = 0.42mm
; first layer extrusion width = 0.42mm


;TYPE:Custom
LED_ON
START_PRINT EXTRUDER_TEMP=200 BED_TEMP=65 MESH=65
M190 S65
M104 S200
SET_PRINT_STATS_INFO TOTAL_LAYER=6
TIMELAPSE_START
G21 ; set units to millimeters
G90 ; use absolute coordinates
M83 ; use relative distances for extrusion
; *********************************
; AD5X Change Filament G-code START




  
    ;prvni extruder
    T0
    


;teplotu na aktualni extruder
M104 S200

; AD5X Change Filament G-code END
; *********************************
M104 S200 ; set temperature
; Filament gcode
SET_PRESSURE_ADVANCE ADVANCE=0.0235
SET_ACTIVE_SPOOL ID=7
M107 ; disable fan
;LAYER_CHANGE
;Z:0.2
;HEIGHT:0.2
EXCLUDE_OBJECT_START NAME='Tvar_Kostka'
G1 E-.8 F2400 ; retract
EXCLUDE_OBJECT_END NAME='Tvar_Kostka'
G1 Z.6 F12000 ; lift
G1 X91.822 Y91.822 ; move to first layer point
G1 Z.2 ; move to first layer point
G1 E.8 F2400 ;  ; unretract
M204 S5000 ; adjust acceleration
;TYPE:Skirt/Brim
;WIDTH:0.42
G1 F1200
G1 X93.286 Y90.357 E.06364 ; skirt
G1 X95.157 Y89.048 E.07016 ; skirt
G1 X97.885 Y88.435 E.08591 ; skirt
G1 X122.689 Y88.27 E.76217 ; skirt
G1 X146.875 Y88.269 E.74317 ; skirt
G1 X149.123 Y88.666 E.07014 ; skirt
G1 X151.517 Y90.192 E.08723 ; skirt
G1 X154.446 Y93.121 E.12728 ; skirt
G1 X155.755 Y94.992 E.07016 ; skirt
G1 X156.369 Y97.764 E.08724 ; skirt
G1 X156.369 Y121.906 E.74182 ; skirt
G1 X155.972 Y124.154 E.07014 ; skirt
G1 X154.446 Y126.549 E.08726 ; skirt
G1 X151.517 Y129.478 E.12728 ; skirt
G1 X149.647 Y130.787 E.07014 ; skirt
G1 X146.918 Y131.401 E.08595 ; skirt
G1 X122.115 Y131.565 E.76214 ; skirt
G1 X97.929 Y131.566 E.74317 ; skirt
G1 X95.681 Y131.169 E.07014 ; skirt
G1 X93.286 Y129.643 E.08726 ; skirt
G1 X90.357 Y126.714 E.12728 ; skirt
G1 X89.048 Y124.843 E.07016 ; skirt
G1 X88.434 Y122.071 E.08724 ; skirt
G1 X88.434 Y97.929 E.74182 ; skirt
G1 X88.831 Y95.681 E.07014 ; skirt
G1 X90.357 Y93.286 E.08726 ; skirt
G1 X91.779 Y91.864 E.06179 ; skirt
;WIPE_START
G1 F9600
G1 X91.822 Y91.822 E-.01428 ; wipe and retract
G1 X93.286 Y90.357 E-.49189 ; wipe and retract
G1 X94.3 Y89.648 E-.29383 ; wipe and retract
;WIPE_END
G1 Z.6 F12000 ; move to first brim point
G1 X96.811 Y96.531 ; move to first brim point
G1 Z.2 ; move to first brim point
G1 E.8 F2400 ;  ; unretract
G1 F1200
G1 X96.933 Y96.4 E.0055 ; brim
G1 X97.621 Y95.884 E.02643 ; brim
G1 X99.458 Y95.286 E.05936 ; brim
G1 X120.491 Y95.29 E.64629 ; brim
G1 X121.543 Y95.51 E.03302 ; brim
G1 X122.271 Y95.843 E.0246 ; brim
G1 X122.655 Y95.603 E.01391 ; brim
G1 X124.263 Y95.122 E.05157 ; brim
G1 X145.29 Y95.125 E.6461 ; brim
G1 X146.238 Y95.309 E.02967 ; brim
G1 X147.147 Y95.7 E.03041 ; brim
G1 X148.365 Y96.723 E.04888 ; brim
G1 X149.156 Y97.941 E.04463 ; brim
G1 X149.517 Y99.324 E.04392 ; brim
G1 X149.517 Y120.345 E.64592 ; brim
G1 X149.21 Y121.599 E.03967 ; brim
G1 X148.672 Y122.571 E.03414 ; brim
G1 X147.871 Y123.435 E.0362 ; brim
G1 X147.183 Y123.951 E.02643 ; brim
G1 X145.346 Y124.549 E.05936 ; brim
G1 X124.288 Y124.549 E.64705 ; brim
G1 X122.913 Y124.189 E.04367 ; brim
G1 X122.547 Y123.984 E.01289 ; brim
G1 X122.147 Y124.233 E.01448 ; brim
G1 X120.541 Y124.713 E.0515 ; brim
G1 X99.49 Y124.713 E.64684 ; brim
G1 X98.236 Y124.406 E.03967 ; brim
G1 X97.264 Y123.868 E.03414 ; brim
G1 X96.4 Y123.067 E.0362 ; brim
G1 X95.884 Y122.379 E.02643 ; brim
G1 X95.287 Y120.542 E.05935 ; brim
G1 X95.287 Y99.49 E.64687 ; brim
G1 X95.594 Y98.236 E.03967 ; brim
G1 X96.132 Y97.264 E.03414 ; brim
G1 X96.771 Y96.575 E.02887 ; brim
G1 X97.045 Y96.832 F12000 ; move to first brim point
G1 F1200
G1 X97.196 Y96.671 E.00678 ; brim
G1 X97.821 Y96.205 E.02396 ; brim
G1 X99.488 Y95.664 E.05385 ; brim
G1 X120.471 Y95.667 E.64475 ; brim
G1 X121.443 Y95.874 E.03054 ; brim
G1 X122.303 Y96.275 E.02916 ; brim
G1 X122.793 Y95.955 E.01798 ; brim
G1 X124.292 Y95.499 E.04814 ; brim
G1 X145.271 Y95.502 E.64463 ; brim
G1 X146.145 Y95.675 E.02738 ; brim
G1 X146.97 Y96.034 E.02765 ; brim
G1 X148.1 Y96.993 E.04554 ; brim
G1 X148.8 Y98.067 E.03939 ; brim
G1 X149.14 Y99.348 E.04072 ; brim
G1 X149.14 Y120.321 E.64444 ; brim
G1 X148.85 Y121.483 E.0368 ; brim
G1 X148.355 Y122.366 E.0311 ; brim
G1 X147.608 Y123.164 E.03359 ; brim
G1 X146.983 Y123.63 E.02396 ; brim
G1 X145.316 Y124.171 E.05385 ; brim
G1 X124.313 Y124.171 E.64536 ; brim
G1 X123.037 Y123.832 E.04057 ; brim
G1 X122.537 Y123.537 E.01784 ; brim
G1 X122.009 Y123.881 E.01936 ; brim
G1 X120.512 Y124.336 E.04808 ; brim
G1 X99.514 Y124.336 E.64521 ; brim
G1 X98.352 Y124.047 E.03679 ; brim
G1 X97.469 Y123.551 E.03112 ; brim
G1 X96.671 Y122.804 E.03359 ; brim
G1 X96.205 Y122.179 E.02396 ; brim
G1 X95.664 Y120.512 E.05385 ; brim
G1 X95.664 Y99.514 E.64521 ; brim
G1 X95.953 Y98.352 E.03679 ; brim
G1 X96.449 Y97.469 E.03112 ; brim
G1 X97.004 Y96.875 E.02498 ; brim
G1 X97.277 Y97.133 F12000 ; move to first brim point
G1 F1200
G1 X97.458 Y96.942 E.00809 ; brim
G1 X98.02 Y96.527 E.02147 ; brim
G1 X99.518 Y96.041 E.04839 ; brim
G1 X120.451 Y96.044 E.64321 ; brim
G1 X121.341 Y96.237 E.02798 ; brim
G1 X122.279 Y96.75 E.03285 ; brim
G1 X122.933 Y96.306 E.02429 ; brim
G1 X124.321 Y95.876 E.04465 ; brim
G1 X145.252 Y95.879 E.64315 ; brim
G1 X146.049 Y96.04 E.02498 ; brim
G1 X146.792 Y96.368 E.02496 ; brim
G1 X147.833 Y97.261 E.04214 ; brim
G1 X148.466 Y98.245 E.03595 ; brim
G1 X148.763 Y99.373 E.03584 ; brim
G1 X148.763 Y120.297 E.64294 ; brim
G1 X148.491 Y121.364 E.03383 ; brim
G1 X148.039 Y122.159 E.0281 ; brim
G1 X147.346 Y122.893 E.03102 ; brim
G1 X146.783 Y123.308 E.02149 ; brim
G1 X145.286 Y123.794 E.04836 ; brim
G1 X124.339 Y123.794 E.64364 ; brim
G1 X123.164 Y123.476 E.0374 ; brim
G1 X122.528 Y123.088 E.02289 ; brim
G1 X121.87 Y123.529 E.02434 ; brim
G1 X120.483 Y123.959 E.04462 ; brim
G1 X99.538 Y123.959 E.64358 ; brim
G1 X98.471 Y123.688 E.03383 ; brim
G1 X97.676 Y123.235 E.02812 ; brim
G1 X96.942 Y122.542 E.03102 ; brim
G1 X96.527 Y121.98 E.02147 ; brim
G1 X96.041 Y120.483 E.04836 ; brim
G1 X96.041 Y99.538 E.64358 ; brim
G1 X96.312 Y98.471 E.03383 ; brim
G1 X96.765 Y97.676 E.02812 ; brim
G1 X97.236 Y97.177 E.02108 ; brim
G1 X97.508 Y97.436 F12000 ; move to first brim point
G1 F1200
G1 X97.719 Y97.215 E.00939 ; brim
G1 X98.218 Y96.849 E.01902 ; brim
G1 X99.547 Y96.418 E.04293 ; brim
G1 X120.431 Y96.421 E.64171 ; brim
G1 X121.2 Y96.587 E.02417 ; brim
G1 X121.873 Y96.907 E.0229 ; brim
G1 X122.301 Y97.273 E.0173 ; brim
G1 X123.076 Y96.656 E.03044 ; brim
G1 X124.35 Y96.253 E.04106 ; brim
G1 X145.232 Y96.256 E.64165 ; brim
G1 X145.952 Y96.405 E.02259 ; brim
G1 X146.612 Y96.7 E.02221 ; brim
G1 X147.566 Y97.528 E.03881 ; brim
G1 X148.11 Y98.372 E.03085 ; brim
G1 X148.386 Y99.398 E.03265 ; brim
G1 X148.386 Y120.273 E.64143 ; brim
G1 X148.133 Y121.243 E.0308 ; brim
G1 X147.725 Y121.95 E.02508 ; brim
G1 X147.085 Y122.62 E.02847 ; brim
G1 X146.585 Y122.986 E.01904 ; brim
G1 X145.257 Y123.417 E.0429 ; brim
G1 X124.365 Y123.417 E.64195 ; brim
G1 X123.292 Y123.12 E.03421 ; brim
G1 X122.464 Y122.601 E.03003 ; brim
G1 X121.728 Y123.179 E.02876 ; brim
G1 X120.454 Y123.582 E.04106 ; brim
G1 X99.562 Y123.582 E.64195 ; brim
G1 X98.592 Y123.33 E.03079 ; brim
G1 X97.885 Y122.921 E.0251 ; brim
G1 X97.215 Y122.281 E.02847 ; brim
G1 X96.849 Y121.782 E.01902 ; brim
G1 X96.418 Y120.453 E.04293 ; brim
G1 X96.418 Y99.562 E.64192 ; brim
G1 X96.67 Y98.592 E.03079 ; brim
G1 X97.079 Y97.885 E.0251 ; brim
G1 X97.466 Y97.48 E.01721 ; brim
G1 X97.736 Y97.74 F12000 ; move to first brim point
G1 F1200
G1 X97.978 Y97.489 E.01071 ; brim
G1 X98.415 Y97.172 E.01659 ; brim
G1 X99.577 Y96.795 E.03754 ; brim
G1 X120.411 Y96.798 E.64017 ; brim
G1 X121.058 Y96.938 E.02034 ; brim
G1 X121.686 Y97.235 E.02135 ; brim
G1 X122.317 Y97.795 E.02592 ; brim
G1 X123.222 Y97.005 E.03691 ; brim
G1 X124.38 Y96.63 E.0374 ; brim
G1 X145.213 Y96.634 E.64014 ; brim
G1 X145.817 Y96.758 E.01895 ; brim
G1 X146.431 Y97.032 E.02066 ; brim
G1 X147.296 Y97.792 E.03538 ; brim
G1 X147.776 Y98.549 E.02754 ; brim
G1 X148.009 Y99.422 E.02776 ; brim
G1 X148.009 Y120.248 E.63992 ; brim
G1 X147.776 Y121.12 E.02773 ; brim
G1 X147.412 Y121.738 E.02204 ; brim
G1 X146.826 Y122.346 E.02595 ; brim
G1 X146.388 Y122.663 E.01661 ; brim
G1 X145.227 Y123.04 E.03751 ; brim
G1 X124.392 Y123.04 E.6402 ; brim
G1 X123.421 Y122.765 E.03101 ; brim
G1 X122.864 Y122.415 E.02021 ; brim
G1 X122.484 Y122.05 E.01619 ; brim
G1 X121.582 Y122.83 E.03664 ; brim
G1 X120.423 Y123.205 E.03743 ; brim
G1 X99.587 Y123.205 E.64023 ; brim
G1 X98.715 Y122.973 E.02773 ; brim
G1 X98.097 Y122.608 E.02205 ; brim
G1 X97.489 Y122.022 E.02595 ; brim
G1 X97.172 Y121.585 E.01659 ; brim
G1 X96.795 Y120.423 E.03754 ; brim
G1 X96.795 Y99.587 E.64023 ; brim
G1 X97.027 Y98.715 E.02773 ; brim
G1 X97.392 Y98.097 E.02205 ; brim
G1 X97.694 Y97.783 E.01339 ; brim
G1 X97.963 Y98.045 F12000 ; move to first brim point
G1 F1200
G1 X98.235 Y97.765 E.01199 ; brim
G1 X98.611 Y97.495 E.01422 ; brim
G1 X99.606 Y97.172 E.03214 ; brim
G1 X120.389 Y97.176 E.6386 ; brim
G1 X120.954 Y97.301 E.01778 ; brim
G1 X121.496 Y97.562 E.01848 ; brim
G1 X122.364 Y98.349 E.036 ; brim
G1 X123.061 Y97.581 E.03187 ; brim
G1 X123.416 Y97.329 E.01338 ; brim
G1 X124.41 Y97.007 E.03211 ; brim
G1 X145.193 Y97.011 E.6386 ; brim
G1 X145.717 Y97.122 E.01646 ; brim
G1 X146.248 Y97.363 E.01792 ; brim
G1 X147.025 Y98.056 E.03199 ; brim
G1 X147.42 Y98.676 E.02259 ; brim
G1 X147.632 Y99.448 E.0246 ; brim
G1 X147.632 Y120.222 E.63833 ; brim
G1 X147.42 Y120.994 E.0246 ; brim
G1 X147.101 Y121.524 E.01901 ; brim
G1 X146.568 Y122.07 E.02345 ; brim
G1 X146.192 Y122.34 E.01422 ; brim
G1 X145.197 Y122.663 E.03214 ; brim
G1 X124.418 Y122.663 E.63848 ; brim
G1 X123.599 Y122.431 E.02616 ; brim
G1 X123.083 Y122.108 E.01871 ; brim
G1 X122.441 Y121.473 E.02775 ; brim
G1 X121.742 Y122.254 E.03221 ; brim
G1 X121.388 Y122.506 E.01335 ; brim
G1 X120.394 Y122.828 E.03211 ; brim
G1 X99.613 Y122.828 E.63854 ; brim
G1 X98.841 Y122.616 E.0246 ; brim
G1 X98.311 Y122.297 E.01901 ; brim
G1 X97.765 Y121.765 E.02342 ; brim
G1 X97.495 Y121.389 E.01422 ; brim
G1 X97.172 Y120.394 E.03214 ; brim
G1 X97.172 Y99.613 E.63854 ; brim
G1 X97.384 Y98.841 E.0246 ; brim
G1 X97.703 Y98.311 E.01901 ; brim
G1 X97.921 Y98.088 E.00958 ; brim
G1 X98.18 Y98.378 F12000 ; move to first brim point
G1 F1200
G1 X98.806 Y97.819 E.02579 ; brim
G1 X99.636 Y97.549 E.02682 ; brim
G1 X120.367 Y97.553 E.63701 ; brim
G1 X120.847 Y97.663 E.01513 ; brim
G1 X121.304 Y97.888 E.01565 ; brim
G1 X121.95 Y98.483 E.02699 ; brim
G1 X122.402 Y99.167 E.02519 ; brim
G1 X122.814 Y98.365 E.0277 ; brim
G1 X123.316 Y97.859 E.0219 ; brim
G1 X123.609 Y97.654 E.01099 ; brim
G1 X124.44 Y97.384 E.02685 ; brim
G1 X145.172 Y97.388 E.63704 ; brim
G1 X145.615 Y97.485 E.01393 ; brim
G1 X146.063 Y97.693 E.01518 ; brim
G1 X146.753 Y98.318 E.02861 ; brim
G1 X147.065 Y98.806 E.0178 ; brim
G1 X147.255 Y99.475 E.02137 ; brim
G1 X147.255 Y120.195 E.63667 ; brim
G1 X147.065 Y120.864 E.02137 ; brim
G1 X146.792 Y121.306 E.01596 ; brim
G1 X145.998 Y122.016 E.03273 ; brim
G1 X145.168 Y122.286 E.02682 ; brim
G1 X124.444 Y122.286 E.63679 ; brim
G1 X123.774 Y122.096 E.0214 ; brim
G1 X123.332 Y121.824 E.01595 ; brim
G1 X122.643 Y121.07 E.03138 ; brim
G1 X122.432 Y120.605 E.01569 ; brim
G1 X121.965 Y121.501 E.03105 ; brim
G1 X121.488 Y121.975 E.02066 ; brim
G1 X121.195 Y122.181 E.01101 ; brim
G1 X120.364 Y122.451 E.02685 ; brim
G1 X99.64 Y122.451 E.63679 ; brim
G1 X98.971 Y122.261 E.02137 ; brim
G1 X98.529 Y121.989 E.01595 ; brim
G1 X97.819 Y121.194 E.03275 ; brim
G1 X97.549 Y120.364 E.02682 ; brim
G1 X97.549 Y99.64 E.63679 ; brim
G1 X97.739 Y98.971 E.02137 ; brim
G1 X98.011 Y98.529 E.01595 ; brim
G1 X98.135 Y98.418 E.00511 ; brim
G1 X98.383 Y98.689 F12000 ; move to first brim point
G1 F1200
G1 X98.956 Y98.166 E.02384 ; brim
G1 X99.668 Y97.926 E.02309 ; brim
G1 X120.346 Y97.93 E.63538 ; brim
G1 X121.071 Y98.185 E.02362 ; brim
G1 X121.676 Y98.743 E.02529 ; brim
G1 X121.908 Y99.105 E.01321 ; brim
G1 X122.074 Y99.668 E.01804 ; brim
G1 X122.074 Y120.332 E.63495 ; brim
G1 X121.908 Y120.896 E.01807 ; brim
G1 X121.683 Y121.25 E.01289 ; brim
G1 X121.252 Y121.681 E.01873 ; brim
G1 X121.044 Y121.834 E.00793 ; brim
G1 X120.332 Y122.074 E.02309 ; brim
G1 X99.668 Y122.074 E.63495 ; brim
G1 X99.104 Y121.908 E.01807 ; brim
G1 X98.75 Y121.683 E.01289 ; brim
G1 X98.319 Y121.252 E.01873 ; brim
G1 X98.166 Y121.044 E.00793 ; brim
G1 X97.926 Y120.332 E.02309 ; brim
G1 X97.926 Y99.668 E.63495 ; brim
G1 X98.092 Y99.104 E.01807 ; brim
G1 X98.317 Y98.75 E.01289 ; brim
G1 X98.339 Y98.73 E.00091 ; brim
G1 X98.598 Y99.002 F12000 ; move to first brim point
G1 F1200
G1 X99.154 Y98.488 E.02327 ; brim
G1 X99.699 Y98.303 E.01768 ; brim
G1 X120.324 Y98.307 E.63375 ; brim
G1 X120.882 Y98.513 E.01828 ; brim
G1 X121.401 Y99.001 E.02189 ; brim
G1 X121.697 Y99.698 E.02327 ; brim
G1 X121.697 Y120.302 E.6331 ; brim
G1 X121.402 Y120.998 E.02323 ; brim
G1 X120.846 Y121.512 E.02327 ; brim
G1 X120.301 Y121.697 E.01768 ; brim
G1 X99.698 Y121.697 E.63307 ; brim
G1 X99.002 Y121.402 E.02323 ; brim
G1 X98.488 Y120.846 E.02327 ; brim
G1 X98.303 Y120.301 E.01768 ; brim
G1 X98.303 Y99.698 E.63307 ; brim
G1 X98.574 Y99.058 E.02136 ; brim
G1 X98.878 Y99.256 F12000 ; move to first brim point
G1 F1200
G1 X99.258 Y98.875 E.01653 ; brim
G1 X99.731 Y98.68 E.01572 ; brim
G1 X120.302 Y98.684 E.63209 ; brim
G1 X120.692 Y98.84 E.01291 ; brim
G1 X121.123 Y99.257 E.01843 ; brim
G1 X121.32 Y99.729 E.01572 ; brim
G1 X121.32 Y120.271 E.6312 ; brim
G1 X121.122 Y120.744 E.01576 ; brim
G1 X120.742 Y121.125 E.01653 ; brim
G1 X120.269 Y121.32 E.01572 ; brim
G1 X99.729 Y121.32 E.63114 ; brim
G1 X99.256 Y121.122 E.01576 ; brim
G1 X98.875 Y120.742 E.01653 ; brim
G1 X98.68 Y120.269 E.01572 ; brim
G1 X98.68 Y99.729 E.63114 ; brim
G1 X98.855 Y99.311 E.01392 ; brim
G1 X99.157 Y99.51 F12000 ; move to first brim point
G1 F1200
G1 X99.51 Y99.157 E.01534 ; brim
G1 X99.764 Y99.057 E.00839 ; brim
G1 X120.282 Y99.064 E.63046 ; brim
G1 X120.5 Y99.167 E.00741 ; brim
G1 X120.843 Y99.51 E.01491 ; brim
G1 X120.943 Y99.764 E.00839 ; brim
G1 X120.943 Y120.236 E.62905 ; brim
G1 X120.843 Y120.49 E.00839 ; brim
G1 X120.49 Y120.843 E.01534 ; brim
G1 X120.236 Y120.943 E.00839 ; brim
G1 X99.764 Y120.943 E.62905 ; brim
G1 X99.51 Y120.843 E.00839 ; brim
G1 X99.157 Y120.49 E.01534 ; brim
G1 X99.057 Y120.236 E.00839 ; brim
G1 X99.057 Y99.764 E.62905 ; brim
G1 X99.135 Y99.566 E.00654 ; brim
G1 X99.463 Y99.737 F12000 ; move to first brim point
G1 F1200
G1 X99.806 Y99.434 E.01406 ; brim
G1 X120.194 Y99.434 E.62647 ; brim
G1 X120.566 Y99.806 E.01617 ; brim
G1 X120.537 Y120.263 E.62859 ; brim
G1 X120.194 Y120.566 E.01406 ; brim
G1 X99.737 Y120.537 E.62859 ; brim
G1 X99.434 Y120.194 E.01406 ; brim
G1 X99.463 Y99.797 E.62674 ; brim
G1 X99.811 Y99.922 F12000 ; move to first brim point
G1 F1200
G1 X99.922 Y99.811 E.00482 ; brim
G1 X120.078 Y99.811 E.61934 ; brim
G1 X120.189 Y99.922 E.00482 ; brim
G1 X120.189 Y120.078 E.61934 ; brim
G1 X120.078 Y120.189 E.00482 ; brim
G1 X99.922 Y120.189 E.61934 ; brim
G1 X99.811 Y120.078 E.00482 ; brim
G1 X99.811 Y99.982 E.61749 ; brim
;WIPE_START
G1 F9600
G1 X99.811 Y99.922 E-.01425 ; wipe and retract
G1 X99.922 Y99.811 E-.03728 ; wipe and retract
G1 X103.073 Y99.811 E-.74847 ; wipe and retract
