; MD5:84f354c1ce641029b8b15d2f25a08f9e
; generated by PrusaSlicer 2.9.4 on 2025-12-12 at 19:10:42 UTC
;
;
; 
; external perimeters extrusion width = 0.62mm
; perimeters extrusion width = 0.62mm
; infill extrusion width = 0.62mm
; solid infill extrusion width = 0.62mm
; top infill extrusion width = 0.62mm
; first layer extrusion width = 0.64mm
; external perimeters extrusion width = 0.62mm
; perimeters extrusion width = 0.62mm
; infill extrusion width = 0.62mm
; solid infill extrusion width = 0.62mm
; top infill extrusion width = 0.62mm
; first layer extrusion width = 0.64mm
EXCLUDE_OBJECT_DEFINE NAME='Tvar_Kostka' CENTER=92.561,105.702 POLYGON=[[103.561,116.702],[81.561,116.702],[81.561,94.702],[103.561,94.702]]
EXCLUDE_OBJECT_DEFINE NAME='Tvar_Kostka' CENTER=121.501,105.285 POLYGON=[[132.501,116.285],[110.501,116.285],[110.501,94.285],[132.501,94.285]]
;TYPE:Custom
LED_ON
;_IFS_COLORS START=1 TYPES=0
START_PRINT EXTRUDER_TEMP=208 BED_TEMP=65 MESH=65
M190 S65
M104 S208
SET_PRINT_STATS_INFO TOTAL_LAYER=25
TIMELAPSE_START
G21 ; set units to millimeters
G90 ; use absolute coordinates
M83 ; use relative distances for extrusion
; *********************************
; AD5X Change Filament G-code START
  G1 Z3 F1200
  T0
  G1 Z0 F1200
;teplotu na aktualni extruder
M104 S208
; AD5X Change Filament G-code END
; *********************************
; Filament gcode
SET_PRESSURE_ADVANCE ADVANCE=0.0235
SET_ACTIVE_SPOOL ID=5
SET_RETRACTION RETRACT_LENGTH=1.4
SET_RETRACTION RETRACT_SPEED=45
M107 ; disable fan
;LAYER_CHANGE
;Z:0.25
;HEIGHT:0.25
EXCLUDE_OBJECT_START NAME='Tvar_Kostka'
G10 ; retract
EXCLUDE_OBJECT_END NAME='Tvar_Kostka'
G1 Z.65 F12000 ; lift
G1 X77.684 Y89.019 ; move to first layer point
G1 Z.25 ; move to first layer point
G11 ; unretract
M204 S5000 ; adjust acceleration
;TYPE:Skirt/Brim
;WIDTH:0.64
;HEIGHT:0.25
G1 F1200
G1 X79.811 Y88.049 E.13962 ; skirt
G1 X81.462 Y87.823 E.09953 ; skirt
G1 X110.501 Y87.405 E1.73454 ; skirt
G1 X132.501 Y87.405 E1.31395 ; skirt
G1 X134.804 Y87.802 E.13958 ; skirt
G1 X136.842 Y88.948 E.13964 ; skirt
G1 X138.378 Y90.709 E.13956 ; skirt
G1 X139.236 Y92.884 E.13964 ; skirt
G1 X139.38 Y94.285 E.08412 ; skirt
G1 X139.38 Y116.285 E1.31395 ; skirt
G1 X138.983 Y118.588 E.13958 ; skirt
G1 X137.967 Y120.462 E.12732 ; skirt
G1 X67.359 Y212.838 E6.94426 ; skirt
G1 X65.645 Y214.427 E.13959 ; skirt
G1 X63.498 Y215.35 E.13958 ; skirt
G1 X61.893 Y215.54 E.09653 ; skirt
G1 X17.715 Y215.54 E2.63853 ; skirt
G1 X15.412 Y215.143 E.13958 ; skirt
G1 X13.374 Y213.998 E.13961 ; skirt
G1 X11.838 Y212.236 E.13961 ; skirt
G1 X10.98 Y210.062 E.13959 ; skirt
G1 X10.836 Y208.661 E.08412 ; skirt
G1 X10.836 Y182.132 E1.58445 ; skirt
G1 X11.233 Y179.829 E.13958 ; skirt
G1 X12.16 Y178.075 E.11849 ; skirt
G1 X76.005 Y90.645 E6.46583 ; skirt
G1 X77.62 Y89.082 E.13423 ; skirt
G10 ; retract
G1 Z.65 F12000 ; move to first perimeter point
G1 X102.655 Y115.796 ; move to first perimeter point
G1 Z.25 ; move to first perimeter point
G11 ; unretract
EXCLUDE_OBJECT_START NAME='Tvar_Kostka'
;TYPE:Perimeter
;WIDTH:0.639999
G1 F1200
G1 X82.467 Y115.796 E1.20573 ; perimeter
G1 X82.467 Y95.609 E1.20567 ; perimeter
G1 X102.655 Y95.609 E1.20573 ; perimeter
G1 X102.655 Y115.706 E1.20029 ; perimeter
G1 X103.241 Y116.382 F12000 ; move to first perimeter point
;TYPE:External perimeter
G1 F1200
G1 X81.881 Y116.382 E1.27573 ; perimeter
G1 X81.881 Y95.022 E1.27573 ; perimeter
G1 X103.241 Y95.022 E1.27573 ; perimeter
G1 X103.241 Y116.292 E1.27035 ; perimeter
G10 ; retract
G1 Z.65 F12000 ; move to first infill point
G1 X102.479 Y96.996 ; move to first infill point
G1 Z.25 ; move to first infill point
G11 ; unretract
;TYPE:Solid infill
;WIDTH:0.652257
G1 F1800
G1 X101.531 Y96.048 E.08175 ; infill
G1 X100.685 Y96.048 E.05158 ; infill
G1 X102.215 Y97.578 E.13193 ; infill
G1 X102.215 Y98.425 E.05164 ; infill
G1 X99.838 Y96.048 E.20497 ; infill
G1 X98.992 Y96.048 E.05158 ; infill
G1 X102.215 Y99.272 E.27796 ; infill
G1 X102.215 Y100.118 E.05158 ; infill
G1 X98.145 Y96.048 E.35095 ; infill
G1 X97.299 Y96.048 E.05158 ; infill
G1 X102.215 Y100.965 E.42395 ; infill
G1 X102.215 Y101.811 E.05158 ; infill
G1 X96.452 Y96.048 E.49694 ; infill
G1 X95.606 Y96.048 E.05158 ; infill
G1 X102.215 Y102.658 E.56994 ; infill
G1 X102.215 Y103.504 E.05158 ; infill
G1 X94.759 Y96.048 E.64293 ; infill
G1 X93.912 Y96.048 E.05164 ; infill
G1 X102.215 Y104.351 E.71597 ; infill
G1 X102.215 Y105.197 E.05158 ; infill
G1 X93.066 Y96.048 E.78892 ; infill
G1 X92.219 Y96.048 E.05164 ; infill
G1 X102.215 Y106.044 E.86195 ; infill
G1 X102.215 Y106.891 E.05164 ; infill
G1 X91.373 Y96.048 E.93495 ; infill
G1 X90.526 Y96.048 E.05164 ; infill
G1 X102.215 Y107.737 E1.00794 ; infill
G1 X102.215 Y108.584 E.05164 ; infill
G1 X89.68 Y96.048 E1.08093 ; infill
G1 X88.833 Y96.048 E.05164 ; infill
G1 X102.215 Y109.43 E1.15393 ; infill
G1 X102.215 Y110.277 E.05164 ; infill
G1 X87.987 Y96.048 E1.22692 ; infill
G1 X87.14 Y96.048 E.05164 ; infill
G1 X102.215 Y111.123 E1.29991 ; infill
G1 X102.215 Y111.97 E.05164 ; infill
G1 X86.293 Y96.048 E1.37295 ; infill
G1 X85.447 Y96.048 E.05158 ; infill
G1 X102.215 Y112.817 E1.44594 ; infill
G1 X102.215 Y113.663 E.05158 ; infill
G1 X84.6 Y96.048 E1.51894 ; infill
G1 X83.754 Y96.048 E.05158 ; infill
G1 X102.215 Y114.51 E1.59193 ; infill
G1 X102.215 Y115.356 E.05158 ; infill
G1 X82.907 Y96.048 E1.66492 ; infill
G1 X82.907 Y96.895 E.05164 ; infill
G1 X101.368 Y115.356 E1.59189 ; infill
G1 X100.522 Y115.356 E.05158 ; infill
G1 X82.907 Y97.742 E1.51889 ; infill
G1 X82.907 Y98.588 E.05158 ; infill
G1 X99.675 Y115.356 E1.4459 ; infill
G1 X98.829 Y115.356 E.05158 ; infill
G1 X82.907 Y99.435 E1.37291 ; infill
G1 X82.907 Y100.281 E.05158 ; infill
G1 X97.982 Y115.356 E1.29991 ; infill
G1 X97.136 Y115.356 E.05158 ; infill
G1 X82.907 Y101.128 E1.22692 ; infill
G1 X82.907 Y101.974 E.05158 ; infill
G1 X96.289 Y115.356 E1.15393 ; infill
G1 X95.443 Y115.356 E.05158 ; infill
G1 X82.907 Y102.821 E1.08093 ; infill
G1 X82.907 Y103.667 E.05158 ; infill
G1 X94.596 Y115.356 E1.00794 ; infill
G1 X93.749 Y115.356 E.05164 ; infill
G1 X82.907 Y104.514 E.9349 ; infill
G1 X82.907 Y105.361 E.05164 ; infill
G1 X92.903 Y115.356 E.86191 ; infill
G1 X92.056 Y115.356 E.05164 ; infill
G1 X82.907 Y106.207 E.78892 ; infill
G1 X82.907 Y107.054 E.05164 ; infill
G1 X91.21 Y115.356 E.71592 ; infill
G1 X90.363 Y115.356 E.05164 ; infill
G1 X82.907 Y107.9 E.64293 ; infill
G1 X82.907 Y108.747 E.05164 ; infill
G1 X89.517 Y115.356 E.56994 ; infill
G1 X88.67 Y115.356 E.05164 ; infill
G1 X82.907 Y109.593 E.49694 ; infill
G1 X82.907 Y110.44 E.05164 ; infill
G1 X87.823 Y115.356 E.42391 ; infill
G1 X86.977 Y115.356 E.05158 ; infill
G1 X82.907 Y111.286 E.35095 ; infill
G1 X82.907 Y112.133 E.05164 ; infill
G1 X86.13 Y115.356 E.27792 ; infill
G1 X85.284 Y115.356 E.05158 ; infill
G1 X82.907 Y112.98 E.20492 ; infill
G1 X82.907 Y113.826 E.05158 ; infill
G1 X84.437 Y115.356 E.13193 ; infill
G1 X83.591 Y115.356 E.05158 ; infill
G1 X82.643 Y114.409 E.0817 ; infill
EXCLUDE_OBJECT_END NAME='Tvar_Kostka'
G10 ; retract
G1 Z.65 F12000 ; Travel to a Wipe Tower
G1 X59.429 Y206.197 ; Travel to a Wipe Tower
G1 Z.25 ; Travel to a Wipe Tower
G11 ; unretract
;HEIGHT:0.25
;TYPE:Wipe tower
;WIDTH:0.75
;--------------------
; CP TOOLCHANGE START
; toolchange #1
; material : PLA -> PLA
;--------------------
M220 S100
; CP TOOLCHANGE UNLOAD
;WIDTH:0.9
G1 X58.679 Y205.746
SET_PRESSURE_ADVANCE ADVANCE=0
G1 F1872
G1 X50.881 E0.6860
G1 F1928
G1 X42.846 E0.7068
G1 F2042
G1 X34.339 E0.7484
G1 F2155
G1 X25.359 E0.7899
G1 F2240
G1 X20.929 E0.3897
G1 Y204.846 F7200
G1 F2240
G1 X25.833 E0.4314
G1 F2325
G1 X35.521 E0.8523
G1 F2467
G1 X45.801 E0.9043
G1 F2666
G1 X56.907 E0.9770
G1 F2807
G1 X58.679 E0.1558
G1 Y203.947 F7200
G1 F2807
G1 X48.753 E0.8731
G1 F2836
G1 X36.938 E1.0394
;WIDTH:0.75
G4 S0
M104 S210
G1 F2000
G1 Y203.121 F2400
G4 S0
G10 ; retract
; Filament-specific end gcode 
;END gcode for filament
CLEAR_ACTIVE_SPOOL
; *********************************
; AD5X Change Filament G-code START
    M104 S210
    _NOPOOP
  G1 Z3.25 F1200
  T1
  G1 Z0.25 F1200
;teplotu na aktualni extruder
M104 S210
; AD5X Change Filament G-code END
; *********************************
; Filament gcode
SET_PRESSURE_ADVANCE ADVANCE=0.0235
SET_ACTIVE_SPOOL ID=8
SET_RETRACTION RETRACT_LENGTH=1.4
SET_RETRACTION RETRACT_SPEED=45
G1 F12000
G1 X36.938 Y203.121
G4 S0
G1 Y203.871
; CP TOOLCHANGE WIPE
;WIDTH:0.75
G1 X20.179 E1.2130 F396
G1 X21.304 Y203.121 E0.0979
G1 X59.429 E2.7594 F450
G1 X58.304 Y202.371 E0.0979
G1 X21.304 E2.6780 F550
;WIDTH:0.75
G1 F12000
G4 S0
G92 E0
; CP TOOLCHANGE END
;------------------
G1 X20.554 Y184.971 F7200
;HEIGHT:0.25
;TYPE:Wipe tower
;WIDTH:0.75
G1 X59.054 E2.7865 F1200
G1 Y201.621 E1.2051
G1 X20.554 E2.7865
G1 Y184.971 E1.2051
G1 X59.054
G1 Y201.621
G1 X57.554
;--------------------
; CP EMPTY GRID START
; layer #1
G1 Y200.871 E0.0543
G1 X21.304 E2.6237
G1 Y200.113 E0.0548
G1 X58.304 E2.6780
G1 Y199.356 E0.0548
G1 X21.304 E2.6780
G1 Y198.598 E0.0548
G1 X58.304 E2.6780
G1 Y197.841 E0.0548
G1 X21.304 E2.6780
G1 Y197.083 E0.0548
G1 X58.304 E2.6780
G1 Y196.326 E0.0548
G1 X21.304 E2.6780
G1 Y195.568 E0.0548
G1 X58.304 E2.6780
G1 Y194.811 E0.0548
G1 X21.304 E2.6780
G1 Y194.055 E0.0548
G1 X58.304 E2.6780
G1 Y193.296 E0.0548
G1 X21.304 E2.6780
G1 Y192.539 E0.0548
G1 X58.304 E2.6780
G1 Y191.781 E0.0548
G1 X21.304 E2.6780
G1 Y191.024 E0.0548
G1 X58.304 E2.6780
G1 Y190.266 E0.0548
G1 X21.304 E2.6780
G1 Y189.509 E0.0548
G1 X58.304 E2.6780
G1 Y188.751 E0.0548
G1 X21.304 E2.6780
G1 Y187.994 E0.0548
G1 X58.304 E2.6780
G1 Y187.236 E0.0548
G1 X21.304 E2.6780
G1 Y186.479 E0.0548
G1 X58.304 E2.6780
G1 Y185.721 E0.0548
G1 X21.304 E2.6780
G1 Y184.971 E0.0543
; CP EMPTY GRID END
;------------------
G1 X19.804 Y184.221
G1 X59.804 E2.8951
G1 Y206.572 E1.6176
G1 X19.804 E2.8951
G1 Y184.221 E1.6176
G1 X19.108 Y183.525
G1 X60.500 E2.9959
G1 Y207.268 E1.7184
G1 X19.108 E2.9959
G1 Y183.525 E1.7184
G1 X18.411 Y182.828
G1 X61.197 E3.0967
G1 Y207.964 E1.8192
G1 X18.411 E3.0967
G1 Y182.828 E1.8192
G1 X17.715 Y182.132
G1 X61.893 E3.1975
G1 Y208.660 E1.9200
G1 X17.715 E3.1975
G1 Y182.132 E1.9200
G10 ; retract
G1 Z.65 F12000 ; move to first skirt point
G1 X11.621 Y181.033 ; move to first skirt point
G1 Z.25 ; move to first skirt point
G11 ; unretract
;TYPE:Skirt/Brim
;WIDTH:0.64
;HEIGHT:0.25
G1 F1200
G1 X11.819 Y179.933 E.06743 ; skirt
G1 X12.633 Y178.421 E.10361 ; skirt
G1 X76.479 Y90.991 E6.53184 ; skirt
G1 X78.096 Y89.449 E.13481 ; skirt
G1 X80.151 Y88.569 E.13488 ; skirt
G1 X81.47 Y88.41 E.08016 ; skirt
G1 X110.501 Y87.991 E1.75175 ; skirt
G1 X132.501 Y87.991 E1.32736 ; skirt
G1 X134.7 Y88.388 E.13482 ; skirt
G1 X136.622 Y89.529 E.13486 ; skirt
G1 X138.024 Y91.269 E.13482 ; skirt
G1 X138.794 Y94.285 E.18781 ; skirt
G1 X138.794 Y116.285 E1.32736 ; skirt
G1 X138.397 Y118.484 E.13482 ; skirt
G1 X137.501 Y120.106 E.1118 ; skirt
G1 X66.893 Y212.482 E7.01512 ; skirt
G1 X65.242 Y213.989 E.13487 ; skirt
G1 X63.169 Y214.823 E.13482 ; skirt
G1 X61.893 Y214.954 E.07739 ; skirt
G1 X17.715 Y214.954 E2.66546 ; skirt
G1 X15.516 Y214.557 E.13482 ; skirt
G1 X13.594 Y213.416 E.13486 ; skirt
G1 X12.192 Y211.676 E.13482 ; skirt
G1 X11.422 Y208.661 E.18775 ; skirt
G1 X11.422 Y182.132 E1.60061 ; skirt
G1 X11.605 Y181.121 E.06199 ; skirt
G10 ; retract
G1 Z.65 F12000 ; move to first perimeter point
G1 X131.595 Y115.378 ; move to first perimeter point
G1 Z.25 ; move to first perimeter point
G11 ; unretract
EXCLUDE_OBJECT_START NAME='Tvar_Kostka'
;TYPE:Perimeter
;WIDTH:0.639999
G1 F1200
G1 X111.407 Y115.378 E1.21803 ; perimeter
G1 X111.407 Y95.191 E1.21797 ; perimeter
G1 X131.595 Y95.191 E1.21803 ; perimeter
G1 X131.595 Y115.288 E1.21254 ; perimeter
G1 X132.181 Y115.965 F12000 ; move to first perimeter point
;TYPE:External perimeter
G1 F1200
G1 X110.821 Y115.965 E1.28874 ; perimeter
G1 X110.821 Y94.605 E1.28874 ; perimeter
G1 X132.181 Y94.605 E1.28874 ; perimeter
G1 X132.181 Y115.875 E1.28331 ; perimeter
G10 ; retract
G1 Z.65 F12000 ; move to first infill point
G1 X131.419 Y96.578 ; move to first infill point
G1 Z.25 ; move to first infill point
G11 ; unretract
;TYPE:Solid infill
;WIDTH:0.652257
G1 F1800
G1 X130.471 Y95.631 E.08254 ; infill
G1 X129.625 Y95.631 E.05211 ; infill
G1 X131.155 Y97.161 E.13328 ; infill
G1 X131.155 Y98.007 E.05211 ; infill
G1 X128.778 Y95.631 E.20702 ; infill
G1 X127.932 Y95.631 E.05211 ; infill
G1 X131.155 Y98.854 E.28075 ; infill
G1 X131.155 Y99.701 E.05217 ; infill
G1 X127.085 Y95.631 E.35454 ; infill
G1 X126.238 Y95.631 E.05217 ; infill
G1 X131.155 Y100.547 E.42827 ; infill
G1 X131.155 Y101.394 E.05217 ; infill
G1 X125.392 Y95.631 E.50201 ; infill
G1 X124.545 Y95.631 E.05217 ; infill
G1 X131.155 Y102.24 E.57575 ; infill
G1 X131.155 Y103.087 E.05217 ; infill
G1 X123.699 Y95.631 E.64949 ; infill
G1 X122.852 Y95.631 E.05217 ; infill
G1 X131.155 Y103.933 E.72323 ; infill
G1 X131.155 Y104.78 E.05217 ; infill
G1 X122.006 Y95.631 E.79697 ; infill
G1 X121.159 Y95.631 E.05217 ; infill
G1 X131.155 Y105.626 E.8707 ; infill
G1 X131.155 Y106.473 E.05217 ; infill
G1 X120.313 Y95.631 E.94444 ; infill
G1 X119.466 Y95.631 E.05217 ; infill
G1 X131.155 Y107.32 E1.01822 ; infill
G1 X131.155 Y108.166 E.05211 ; infill
G1 X118.619 Y95.631 E1.09196 ; infill
G1 X117.773 Y95.631 E.05211 ; infill
G1 X131.155 Y109.013 E1.1657 ; infill
G1 X131.155 Y109.859 E.05211 ; infill
G1 X116.926 Y95.631 E1.23944 ; infill
G1 X116.08 Y95.631 E.05211 ; infill
G1 X131.155 Y110.706 E1.31318 ; infill
G1 X131.155 Y111.552 E.05211 ; infill
G1 X115.233 Y95.631 E1.38692 ; infill
G1 X114.387 Y95.631 E.05211 ; infill
G1 X131.155 Y112.399 E1.46065 ; infill
G1 X131.155 Y113.245 E.05211 ; infill
G1 X113.54 Y95.631 E1.53439 ; infill
G1 X112.694 Y95.631 E.05211 ; infill
G1 X131.155 Y114.092 E1.60813 ; infill
G1 X131.155 Y114.939 E.05217 ; infill
G1 X111.847 Y95.631 E1.68191 ; infill
G1 X111.847 Y96.477 E.05211 ; infill
G1 X130.308 Y114.939 E1.60817 ; infill
G1 X129.462 Y114.939 E.05211 ; infill
G1 X111.847 Y97.324 E1.53444 ; infill
G1 X111.847 Y98.17 E.05211 ; infill
G1 X128.615 Y114.939 E1.4607 ; infill
G1 X127.769 Y114.939 E.05211 ; infill
G1 X111.847 Y99.017 E1.38696 ; infill
G1 X111.847 Y99.864 E.05217 ; infill
G1 X126.922 Y114.939 E1.31318 ; infill
G1 X126.075 Y114.939 E.05217 ; infill
G1 X111.847 Y100.71 E1.23944 ; infill
G1 X111.847 Y101.557 E.05217 ; infill
G1 X125.229 Y114.939 E1.1657 ; infill
G1 X124.382 Y114.939 E.05217 ; infill
G1 X111.847 Y102.403 E1.09196 ; infill
G1 X111.847 Y103.25 E.05217 ; infill
G1 X123.536 Y114.939 E1.01822 ; infill
G1 X122.689 Y114.939 E.05217 ; infill
G1 X111.847 Y104.096 E.94449 ; infill
G1 X111.847 Y104.943 E.05217 ; infill
G1 X121.843 Y114.939 E.87075 ; infill
G1 X120.996 Y114.939 E.05217 ; infill
G1 X111.847 Y105.79 E.79697 ; infill
G1 X111.847 Y106.636 E.05211 ; infill
G1 X120.15 Y114.939 E.72327 ; infill
G1 X119.303 Y114.939 E.05217 ; infill
G1 X111.847 Y107.483 E.64949 ; infill
G1 X111.847 Y108.329 E.05211 ; infill
G1 X118.456 Y114.939 E.57575 ; infill
G1 X117.61 Y114.939 E.05211 ; infill
G1 X111.847 Y109.176 E.50201 ; infill
G1 X111.847 Y110.022 E.05211 ; infill
G1 X116.763 Y114.939 E.42827 ; infill
G1 X115.917 Y114.939 E.05211 ; infill
G1 X111.847 Y110.869 E.35454 ; infill
G1 X111.847 Y111.715 E.05211 ; infill
G1 X115.07 Y114.939 E.2808 ; infill
G1 X114.224 Y114.939 E.05211 ; infill
G1 X111.847 Y112.562 E.20706 ; infill
G1 X111.847 Y113.409 E.05217 ; infill
G1 X113.377 Y114.939 E.13328 ; infill
G1 X112.531 Y114.939 E.05211 ; infill
G1 X111.583 Y113.991 E.08258 ; infill
;LAYER_CHANGE
;Z:0.45
;HEIGHT:0.2
;NEXT_LAYER_CHANGE
G10 ; retract
G1 Z.45 F12000 ; simple layer change
;AFTER_LAYER_CHANGE
;0.45
SET_PRINT_STATS_INFO CURRENT_LAYER=2
TIMELAPSE_CLEAN_CAPTURE
G1 Z.85 ; travel to first layer point
G1 X131.614 Y115.398 ; travel to first layer point
G1 Z.45 ; travel to first layer point
G11 ; unretract
;TYPE:Perimeter
;WIDTH:0.619999
;HEIGHT:0.2
G1 F6000
G1 X111.388 Y115.398 E.96083 ; perimeter
G1 X111.388 Y95.172 E.96083 ; perimeter
